!!!COM: Corelli, Arcangelo
!!!OTL: 
!!!ONM: Opus 3, No. 6
!!!OMV: 1
!!!CDT: 1653/2/17/-1713/1/8/
!!!OCY: Italia
**kern	**kern	**kern	**kern
*clefC	*clefC	*clefG	*clefG
*k[]	*k[]	*k[]	*k[]
*C:	*C:	*C:	*C:
*M4/4	*M4/4	*M4/4	*M4/4
=1	=1	=1	=1
2G	2G	2r	8b
.	.	.	8dd
.	.	.	8b
.	.	.	8g
2F#	2F#	8ff#	2dd
.	.	8aa	.
.	.	8ff#	.
.	.	8dd	.
=2	=2	=2	=2
2E	2E	8gg	8ee
.	.	8bb	8gg
.	.	8gg	8ee
.	.	8ee	8cc#
2D	2D	4a	8ff#
.	.	.	8aa
.	.	4r	8ff#
.	.	.	8dd
=3	=3	=3	=3
4.BB	4.BB	8dd	8gg
.	.	8gg	8bb
.	.	8dd	8gg
8BB	8BB	8b	8dd
4.C	4.C	8g	8ee
.	.	8ee	8gg
.	.	8aa	8ccc
8C	8C	8cc	8ee
=4	=4	=4	=4
4D	4D	4cc	8ff#
.	.	.	8dd
8E	8E	8b	4gg
8C	8C	8a	.
4D	4D	4b	4.gg
4DD	4DD	4a	.
.	.	.	8ff#
=5	=5	=5	=5
2GG	2GG	2g	2gg
2G	2G	2r	8bb
.	.	.	8ddd
.	.	.	8bb
.	.	.	8gg
=6	=6	=6	=6
2F#	2F#	8dd	4aa
.	.	8ff#	.
.	.	8aa	4r
.	.	8dd	.
2E	2E	4gg	8ee
.	.	.	8gg
.	.	4r	8b
.	.	.	8cc#
=7	=7	=7	=7
2D	2D	8ff#	4.dd
.	.	8aa	.
.	.	8dd	.
.	.	8ff#	8a
4GG	4GG	8gg	8b
.	.	8b	8dd
[4G	[4G	8dd	8gg
.	.	8gg	8b
=8	=8	=8	=8
4G]	4G]	4ee	8cc#
.	.	.	8aa
8F#	8F#	2dd	8dd
8G	8G	.	8bb
4A	4A	.	4ff#
4AA	4AA	4cc#	4ee
=9	=9	=9	=9
8D	8D	4dd	4dd
8F#	8F#	.	.
8D	8D	4r	4r
8C	8C	.	.
4BB	4BB	8dd	8gg
.	.	8gg	8bb
4r	4r	8dd	8gg
.	.	8b	8dd
=10	=10	=10	=10
8C	8C	4g	4ee
8E	8E	.	.
8C	8C	4r	4r
8BB	8BB	.	.
4AA	4AA	8ee	8aa
.	.	8aa	8ccc
4r	4r	8ee	8aa
.	.	8cc	8ee
=11	=11	=11	=11
8D	8D	4a	4ff#
8F#	8F#	.	.
8D	8D	4r	4r
8C	8C	.	.
4.BB	4.BB	8dd	8gg
.	.	8gg	8bb
.	.	8dd	8gg
8BB	8BB	8b	8dd
=12	=12	=12	=12
4.C	4.C	8g	8ee
.	.	8ee	8gg
.	.	8aa	8ccc
8C	8C	8cc	8ee
4D	4D	4cc	8ff#
.	.	.	8dd
8E	8E	8b	4gg
8C	8C	8a	.
=13	=13	=13	=13
4D	4D	4b	4.gg
4DD	4DD	4a	.
.	.	.	8ff#
8G	8G	2g	2gg
8B	8B	.	.
8G	8G	.	.
8F#	8F#	.	.
=14	=14	=14	=14
8E	8E	2r	8gg
8G	8G	.	8bb
8E	8E	.	8gg
8BB	8BB	.	8dd
4.C	4.C	8gg	8ee
.	.	8ee	8gg
.	.	8aa	8ccc
8C	8C	8cc	8ee
=15	=15	=15	=15
4D	4D	4cc	8ff#
.	.	.	8dd
8E	8E	8b	4gg
8C	8C	8a	.
4D	4D	4b	4.gg
4DD	4DD	4a	.
.	.	.	8ff#
=16	=16	=16	=16
1GG	1GG	1g	1gg
=17	=17	=17	=17
4.G	4.G	4.b	4.dd
8G	8G	8b	8dd
4F#	4F#	4a	4dd#
4E	4E	4g	4ee
=18	=18	=18	=18
2D#	2D#	2b	4.ff#
.	.	.	16ee
.	.	.	16ff#
4.E	4.E	4.b	8gg
.	.	.	8ee
.	.	.	[4bb
8D	8D	8b	.
=19	=19	=19	=19
4.C	4.C	4.ee	8bb]
.	.	.	8ee
.	.	.	4.aa
8AA	8AA	8ff#	.
4BB	4BB	8dd#	.
.	.	8b	8bb
8C	8C	4ee	8gg
8AA	8AA	.	8ff#
=20	=20	=20	=20
2BB	2BB	4.ee	4gg
.	.	.	4ff#
.	.	8dd#	.
4.E	4.E	4.ee	8ee
.	.	.	8ff#
.	.	.	4gg
8D	8D	8bb	.
=21	=21	=21	=21
4C#	4C#	4.aa	8r
.	.	.	8ee
4AA	4AA	.	4aa
.	.	8gg	.
4.D	4.D	8ff#	8r
.	.	8gg	8a
.	.	[4aa	8dd
8F#	8F#	.	8cc
=22	=22	=22	=22
8G	8G	4aa]	8b
8A	8A	.	8cc#
8B	8B	2gg	8dd
8G	8G	.	8ee
4A	4A	.	8cc#
.	.	.	4a
8r	8r	4ff#	.
8F#	8F#	.	8aa
=23	=23	=23	=23
8G	8G	8b	8bb
8A	8A	8cc#	8aa
8B	8B	4dd	8gg
8F#	8F#	.	8ff#
8G	8G	4.dd	2ee
8E	8E	.	.
8A	8A	.	.
8AA	8AA	8cc#	.
=24	=24	=24	=24
8D	8D	2dd	2dd
8E	8E	.	.
8D	8D	.	.
8C	8C	.	.
2BB	2BB	2r	8gg
.	.	.	8bb
.	.	.	8gg
.	.	.	8dd
=25	=25	=25	=25
2C	2C	8gg	8ee
.	.	8g	8e
.	.	8cc	4r
.	.	8ee	.
2C#	2C#	8a	8ee
.	.	8A	8aa
.	.	4r	8ee
.	.	.	8cc#
=26	=26	=26	=26
2D	2D	8aa	8ff#
.	.	8a	8f#
.	.	8dd	4r
.	.	8ff#	.
2D#	2D#	8b	8ff#
.	.	8B	8bb
.	.	4r	8ff#
.	.	.	8dd#
=27	=27	=27	=27
2E	2E	8gg	8gg
.	.	8bb	8g
.	.	8gg	4r
.	.	8bb	.
2E	2E	8ee	8gg
.	.	8e	8ccc
.	.	4r	8gg
.	.	.	8ee
=28	=28	=28	=28
2F#	2F#	8aa	8aa
.	.	8ccc	8a
.	.	8aa	4r
.	.	8ff#	.
2F#	2F#	8dd	8aa
.	.	8d	8ddd
.	.	4r	8aa
.	.	.	8ff#
=29	=29	=29	=29
2G	2G	8gg	4bb
.	.	8bb	.
.	.	8gg	4r
.	.	8dd	.
4GG	4GG	8b	8gg
.	.	8g	8bb
4BB	4BB	[4dd	8gg
.	.	.	8dd
=30	=30	=30	=30
4.C	4.C	4dd]	8ee
.	.	.	8gg
.	.	2cc	8ccc
8C	8C	.	8ee
4D	4D	.	8ff#
.	.	.	8dd
8E	8E	8b	4gg
8C	8C	8a	.
=31	=31	=31	=31
4D	4D	4b	4.gg
4DD	4DD	4a	.
.	.	.	8ff#
4.GG	4.GG	8gg	4gg
.	.	8bb	.
.	.	8gg	[4dd
8BB	8BB	8dd	.
=32	=32	=32	=32
4.C	4.C	8ee	4dd]
.	.	8gg	.
.	.	8ccc	2cc
8C	8C	8ee	.
4D	4D	8ff#	.
.	.	8dd	.
8E	8E	4gg	8b
8C	8C	.	8a
=33	=33	=33	=33
4D	4D	4.gg	4b
4DD	4DD	.	4a
.	.	8ff#	.
2GG	2GG	2gg	2g
==	==	==	==
*-	*-	*-	*-
!!!RWG: This file only contains pitch and duration data.
!!!RWG: Transposing instruments are not transposed.
!!!RWG: Durations of rests and tied notes may be interpreted.
!!!RWG: Key is interpreted using the Humdrum key tool.
!!!SCA: 
!!!YOR: Chrysander Edition
!!!AGN: chamber
!!!AFT: stage1
!!!ENC: F. Bennion
!!!END: 1997/04/15
!!!AST: baroque
!!!YEC: Copyright 1994, Center for Computer Assisted Research in the Humanities
!!!YEM: Rights to all derivative electronic formats reserved.
!!!YEM: Refer to licensing agreement for further details.
!!!YEN: United States of America
!!!EED: W.B. Hewlett
!!!KEY: 2006035199
!!!EMD: Converted from MuseData to Humdrum Aug 9, 1999, by Bret Aarden using muse2kern.
!!!VTS: 3417670741
